Seerr/seerr.svg

<?xml version="1.0" encoding="utf-8"?>
<svg width="96px" height="96px" viewBox="0 0 96 96" fill="none" xmlns="http://www.w3.org/2000/svg">
  <circle cx="52" cy="52" r="28" fill="#131928"/>
  <path fill-rule="evenodd" clip-rule="evenodd" d="M48 96C74.5097 96 96 74.5097 96 48C96 21.4903 74.5097 0 48 0C21.4903 0 0 21.4903 0 48C0 74.5097 21.4903 96 48 96ZM80.0001 52C80.0001 67.464 67.4641 80 52.0001 80C36.5361 80 24.0001 67.464 24.0001 52C24.0001 49.1303 24.4318 46.3615 25.2338 43.7548C27.4288 48.6165 32.3194 52 38.0001 52C45.7321 52 52.0001 45.732 52.0001 38C52.0001 32.3192 48.6166 27.4287 43.755 25.2337C46.3616 24.4317 49.1304 24 52.0001 24C67.4641 24 80.0001 36.536 80.0001 52Z" fill="url(#paint0_linear_311_158)"/>
  <path opacity="0.2" fill-rule="evenodd" clip-rule="evenodd" d="M80.0002 52C80.0002 67.464 67.4642 80 52.0002 80C36.864 80 24.5329 67.9897 24.017 52.9791C24.0057 53.318 24 53.6583 24 54C24 70.5685 37.4315 84 54 84C70.5685 84 84 70.5685 84 54C84 37.4315 70.5685 24 54 24C53.6597 24 53.3207 24.0057 52.9831 24.0169C67.9919 24.5347 80.0002 36.865 80.0002 52Z" fill="#131928"/>
  <path fill-rule="evenodd" clip-rule="evenodd" d="M48 12C28.1177 12 12 28.1177 12 48C12 50.2091 10.2091 52 8 52C5.79086 52 4 50.2091 4 48C4 23.6995 23.6995 4 48 4C50.2091 4 52 5.79086 52 8C52 10.2091 50.2091 12 48 12Z" fill="url(#paint1_linear_311_158)"/>
  <defs>
    <linearGradient id="paint0_linear_311_158" x1="48" y1="-2.07126e-06" x2="117.5" y2="69.5" gradientUnits="userSpaceOnUse">
      <stop stop-color="#C395FC"/>
      <stop offset="1" stop-color="#4F65F5"/>
    </linearGradient>
    <linearGradient id="paint1_linear_311_158" x1="28" y1="8" x2="28" y2="48" gradientUnits="userSpaceOnUse">
      <stop stop-color="white" stop-opacity="0.4"/>
      <stop offset="1" stop-color="white" stop-opacity="0"/>
    </linearGradient>
  </defs>
</svg>

<svg fill="none" viewBox="0 0 96 96" xmlns="http://www.w3.org/2000/svg"><circle cx="52" cy="52" r="28" fill="#131928"/><path fill="url(#a)" fill-rule="evenodd" d="M48 96c26.51 0 48-21.49 48-48S74.51 0 48 0 0 21.49 0 48s21.49 48 48 48m32-44c0 15.464-12.536 28-28 28S24 67.464 24 52c0-2.87.432-5.639 1.234-8.245C27.429 48.616 32.319 52 38 52c7.732 0 14-6.268 14-14 0-5.68-3.383-10.571-8.245-12.766A28 28 0 0 1 52 24c15.464 0 28 12.536 28 28" clip-rule="evenodd"/><path fill="#131928" fill-rule="evenodd" d="M80 52c0 15.464-12.536 28-28 28-15.136 0-27.467-12.01-27.983-27.02Q24 53.486 24 54c0 16.569 13.432 30 30 30 16.569 0 30-13.431 30-30 0-16.568-13.431-30-30-30q-.51 0-1.017.017C67.992 24.535 80 36.865 80 52" clip-rule="evenodd" opacity=".2"/><path fill="url(#b)" fill-rule="evenodd" d="M48 12c-19.882 0-36 16.118-36 36a4 4 0 0 1-8 0C4 23.7 23.7 4 48 4a4 4 0 0 1 0 8" clip-rule="evenodd"/><defs><linearGradient id="a" x1="48" x2="117.5" y1="0" y2="69.5" gradientUnits="userSpaceOnUse"><stop stop-color="#C395FC"/><stop offset="1" stop-color="#4F65F5"/></linearGradient><linearGradient id="b" x1="28" x2="28" y1="8" y2="48" gradientUnits="userSpaceOnUse"><stop stop-color="#fff" stop-opacity=".4"/><stop offset="1" stop-color="#fff" stop-opacity="0"/></linearGradient></defs></svg>
